!!!!SEGMENT: pl-sa--l-1636--029_anonim--keyboard-piece.krn
!!!cenid: 17xx:736
!!!COM: Anonim
!!!COM-rismid: pe30004985
!!!CDT:
!!!CNT:
!!!OTL: Keyboard piece
!!!PDT:
!!!AGN: Secular
!!!SMS-siglum: PL-SA
!!!SMS-shelfmark: L 1636
!!!SMS-shelfwork: 029 W
!!!SMS-variant:
!!!SMS-altvar:
!!!NIFC-rismid: 1001076502
!!!URL-scan: http://repozytorium.nifc.pl/skany/pl-sa-nut--l1636
!!!ONB-nifc: 9r, skan 0012, s. 5-6
**kern	**kern
*part1	*part1
*staff2	*staff1
*I"[Keyboard]	*
*I'keyb	*
*clefC4	*clefC1
*k[b-]	*k[b-]
*M2/2	*M2/2
*met(c|)	*met(c|)
=1	=1
*2\right	*2\right
1r	2cc\
.	4a\
.	4dd\
=2	=2
2r	8cc\L
.	8b-\
.	8a\
.	8g\J
*2\right	*
2f\	4.f/
.	16g/LL
.	16a/JJ
=3	=3
4d\	2b-/
4g\	.
8f\L	8a/L
8e\	8g/J
8d\	8a\L
8c\J	16b-\L
.	16cc\JJ
=4	=4
*	*^
8B-\L	8dd\L	2ryy
8c\	8cc\	.
8d\	8dd\	.
8e\J	8b-\J	.
4f\	2a/	2f\
4d\	.	.
=5	=5	=5
2c\	2g/	4f\
.	.	4e\
4A\	8a/L	2f\
.	8g/	.
4d\	8a/	.
.	8b-/J	.
=6	=6	=6
8c\L	4.cc/	8f\L
8B-\	.	8d\
8A\	.	8c\
!	!LO:TX:a:t=P:problem:takt częściowo zamazany	!
8G\J	8ryy	16d\L
.	.	16e\JJ
4.F\	8a/L	8f\L
.	8g/J	8e\J
.	4f/	4d\
16G\LL	.	.
16A\JJ	.	.
!!LO:LB:g=original
=7	=7	=7
4.B-\	4.dd/	8d\L
.	.	8e\J
.	.	4f\
8A\	8cc/	.
8G\L	2b-/	2g\
8A\	.	.
8B-\	.	.
8G\J	.	.
=8	=8	=8
1c 1G 1C	4b-/	4e\
.	4a/	4f\
.	2g/	4f\
.	.	4e\
*clefF4	*	*
=9	=9	=9
*^	*	*
2c/	2F\	2a/	2f\
4d/	4D\	4a/	4d\
4B-/	4G\	4g/	4e\
*	*	*v	*v
=10	=10	=10
4c/	8F\L	8a\L
.	8E\J	8g\
4A/	8D\L	8f\
.	8C\J	8e\J
[>2F/	4.BB-\	8d/L
.	.	8f/
.	.	8g/
.	8AA\	8a/J
=11	=11	=11
4.F/]	2GG\	4.b-/
16E/LL	.	16a/LL
16D/JJ	.	16g/JJ
4E/	8FF\L	2a 2c/
.	8GG\	.
!LO:N:vis=2	!	!
4F/	8AA\	.
.	8BB-\J	.
=12	=12	=12
*	*	*^
*	*	*	*^
4E/	2C\	4g/	8B-\L	2ryy
.	.	.	8c\	.
4A/	.	4f/	8d\	.
.	.	.	16c\L	.
.	.	.	16B-\JJ	.
2G/	2C\	4e/	8ryy	4ryy
.	.	.	8ryy	.
.	.	4g 4e	4c\	8A\L
.	.	.	.	8B-J 8G\
*v	*v	*	*	*
*	*v	*v	*v
=13-	=13-
1F 1C 1FF	1f 1c 1A
==	==
*-	*-
!!!system-decoration: s1,s2
!!!RDF**kern: > = above
!!!RDF**kern: < = below
!!!EED: Antoni Szymański
!!!EST: 2020-12-07
!!!ENC: Tomasz Grochalski
!!!END: 2020-06-11
